Numix-GalliumOS/16/status/pamac-download.svg

<?xml version="1.0" encoding="UTF-8" standalone="no"?>
<svg
   xmlns:dc="http://purl.org/dc/elements/1.1/"
   xmlns:cc="http://creativecommons.org/ns#"
   xmlns:rdf="http://www.w3.org/1999/02/22-rdf-syntax-ns#"
   xmlns:svg="http://www.w3.org/2000/svg"
   xmlns="http://www.w3.org/2000/svg"
   xmlns:sodipodi="http://sodipodi.sourceforge.net/DTD/sodipodi-0.dtd"
   xmlns:inkscape="http://www.inkscape.org/namespaces/inkscape"
   width="16"
   height="16"
   viewBox="0 0 16 16"
   id="svg2"
   version="1.1"
   inkscape:version="0.91 r"
   sodipodi:docname="pamac-download.svg">
  <metadata
     id="metadata10">
    <rdf:RDF>
      <cc:Work
         rdf:about="">
        <dc:format>image/svg+xml</dc:format>
        <dc:type
           rdf:resource="http://purl.org/dc/dcmitype/StillImage" />
        <dc:title />
      </cc:Work>
    </rdf:RDF>
  </metadata>
  <defs
     id="defs8" />
  <sodipodi:namedview
     pagecolor="#ffffff"
     bordercolor="#666666"
     borderopacity="1"
     objecttolerance="10"
     gridtolerance="10"
     guidetolerance="10"
     inkscape:pageopacity="0"
     inkscape:pageshadow="2"
     inkscape:window-width="1366"
     inkscape:window-height="747"
     id="namedview6"
     showgrid="true"
     inkscape:zoom="16"
     inkscape:cx="-5.4517103"
     inkscape:cy="14.27832"
     inkscape:window-x="0"
     inkscape:window-y="21"
     inkscape:window-maximized="1"
     inkscape:current-layer="svg2">
    <inkscape:grid
       type="xygrid"
       id="grid4138" />
  </sodipodi:namedview>
  <path
     style="fill:#c28e5c"
     d="M 5 2 L 3 5 L 7.5 5 L 7.5 2 L 5 2 z M 8.5 2 L 8.5 5 L 13 5 L 11 2 L 8.5 2 z M 3 6 L 3 13 L 9.0859375 13 L 7.5859375 11.5 L 10.427734 11.5 L 10.427734 9 L 13 9 L 13 6 L 3 6 z M 12.427734 11 L 12.427734 13 L 12.572266 13 L 12.572266 11 L 12.427734 11 z "
     id="path4" />
  <path
     inkscape:connector-curvature="0"
     style="fill:#4db147;fill-opacity:1"
     d="m 12.5,15 2.5,-2.5 -1.428571,0 0,-2.5 -2.142858,0 0,2.5 L 10,12.5 Z"
     id="path4139" />
</svg>

<svg xmlns="http://www.w3.org/2000/svg" viewBox="0 0 16 16">
 <path d="m 5 2 l -2 3 l 4.5 0 l 0 -3 l -2.5 0 z m 3.5 0 l 0 3 l 4.5 0 l -2 -3 l -2.5 0 z m -5.5 4 l 0 7 l 6.086 0 l -1.5 -1.5 l 2.842 0 l 0 -2.5 l 2.572 0 l 0 -3 l -10 0 z m 9.428 5 l 0 2 l 0.145 0 l 0 -2 l -0.145 0 z" style="fill:#c28e5c"/>
 <path d="m 12.5 15 2.5 -2.5 -1.429 0 0 -2.5 -2.143 0 0 2.5 l -1.429 0" style="fill:#4db147;fill-opacity:1"/>
</svg>
